react/assets/forus-platform/resources/_platform-common/assets/img/pre-check-funds-logo.svg

<svg width="73" height="72" viewBox="0 0 73 72" fill="none" xmlns="http://www.w3.org/2000/svg">
<rect x="0.5" y="0.000244141" width="72" height="72" rx="36" fill="#EAF0F6"/>
<g clip-path="url(#clip0_31_72994)">
<path fill-rule="evenodd" clip-rule="evenodd" d="M41.3935 41.3518C41.8804 41.3518 42.2751 40.9571 42.2751 40.4703V37.8256C42.2751 37.3388 41.8804 36.9441 41.3935 36.9441H24.6442C24.1573 36.9441 23.7627 37.3388 23.7627 37.8256V40.4703C23.7627 40.9571 24.1574 41.3518 24.6442 41.3518H41.3935ZM37.8674 49.2857C38.3542 49.2857 38.7489 48.891 38.7489 48.4042V45.7596C38.7489 45.2727 38.3542 44.878 37.8674 44.878H24.6442C24.1573 44.878 23.7627 45.2727 23.7627 45.7596V48.4042C23.7627 48.891 24.1574 49.2857 24.6442 49.2857H37.8674Z" fill="#134478"/>
<path fill-rule="evenodd" clip-rule="evenodd" d="M22 31.6572C22 32.6333 22.7904 33.4245 23.7639 33.4245H41.394V23.7275H23.7639C22.7897 23.7276 22 24.5211 22 25.4949V31.6572Z" fill="#134478"/>
<path fill-rule="evenodd" clip-rule="evenodd" d="M43.1797 33.4321H50.2367C51.2109 33.4321 52.0005 32.638 52.0005 31.6635V25.4962C52.0005 24.5194 51.21 23.7275 50.2367 23.7275H43.1797V33.4321Z" fill="#134478"/>
<path fill-rule="evenodd" clip-rule="evenodd" d="M24.2051 29.016C24.2051 29.2619 24.3991 29.4613 24.6477 29.4613H33.4771C33.7216 29.4613 33.9198 29.2657 33.9198 29.016V28.142C33.9198 27.8961 33.7257 27.6968 33.4771 27.6968H24.6477C24.4032 27.6968 24.2051 27.8923 24.2051 28.142V29.016Z" fill="#134478"/>
<path fill-rule="evenodd" clip-rule="evenodd" d="M46.7503 29.1492C46.5782 28.9771 46.3003 28.9758 46.1238 29.1524L45.5058 29.7704C45.3319 29.9442 45.3294 30.2237 45.5024 30.3966L46.9554 31.8497C47.3 32.1942 47.8586 32.1942 48.2031 31.8497L49.6562 30.3966C49.8282 30.2246 49.8293 29.9469 49.6527 29.7704L49.0347 29.1524C48.8608 28.9785 48.58 28.9774 48.4082 29.1492L47.5792 29.9782L46.7503 29.1492ZM46.7503 28.0088C46.5782 28.181 46.3003 28.1822 46.1238 28.0057L45.5058 27.3877C45.3319 27.2138 45.3294 26.9344 45.5024 26.7614L46.9554 25.3083C47.3 24.9638 47.8586 24.9638 48.2031 25.3083L49.6562 26.7614C49.8282 26.9334 49.8293 27.2111 49.6527 27.3877L49.0347 28.0057C48.8608 28.1795 48.58 28.1807 48.4082 28.0088L47.5792 27.1799L46.7503 28.0088Z" fill="white"/>
</g>
<defs>
<clipPath id="clip0_31_72994">
<rect width="30" height="30" fill="white" transform="translate(22 21.0002)"/>
</clipPath>
</defs>
</svg>

<svg width="73" height="72" fill="none" xmlns="http://www.w3.org/2000/svg"><rect x=".5" width="72" height="72" rx="36" fill="#EAF0F6"/><g clip-path="url(#a)" fill-rule="evenodd" clip-rule="evenodd"><path d="M41.394 41.352a.882.882 0 0 0 .881-.882v-2.644a.882.882 0 0 0-.881-.882h-16.75a.881.881 0 0 0-.881.882v2.644c0 .487.394.882.881.882h16.75Zm-3.527 7.934a.882.882 0 0 0 .882-.882V45.76a.882.882 0 0 0-.882-.882H24.644a.882.882 0 0 0-.881.882v2.644c0 .487.394.882.881.882h13.223ZM22 31.657c0 .976.79 1.768 1.764 1.768h17.63v-9.697h-17.63c-.974 0-1.764.793-1.764 1.767v6.162ZM43.18 33.432h7.057c.974 0 1.764-.794 1.764-1.769v-6.167c0-.977-.791-1.768-1.764-1.768H43.18v9.704Z" fill="#134478"/><path d="M24.205 29.016c0 .246.194.445.443.445h8.83a.442.442 0 0 0 .442-.445v-.874a.441.441 0 0 0-.443-.445h-8.83a.441.441 0 0 0-.442.445v.874Z" fill="#134478"/><path d="M46.75 29.15a.44.44 0 0 0-.626.002l-.618.618a.442.442 0 0 0-.004.627l1.453 1.453a.882.882 0 0 0 1.248 0l1.453-1.453a.44.44 0 0 0-.003-.627l-.618-.618a.443.443 0 0 0-.627-.003l-.829.83-.829-.83Zm0-1.141a.44.44 0 0 1-.626-.003l-.618-.618a.442.442 0 0 1-.004-.627l1.453-1.453a.882.882 0 0 1 1.248 0l1.453 1.453a.44.44 0 0 1-.003.627l-.618.618a.443.443 0 0 1-.627.003l-.829-.83-.829.83Z" fill="#fff"/></g><defs><clipPath id="a"><path fill="#fff" d="M22 21h30v30H22z"/></clipPath></defs></svg>
